X: 3255
M: 6/8
L: 1/8
K: G
|:\
[1 dBG G2A | BGE E2F :|\
[2 dBG ABc | BGG G2 |:\
d |\
gfg efg |
dec BAG |\
gfg efg | fdd d2d |\
efg gfe | dec B2c |\
dBG ABc | BGG G2 :|


